X: 36622
T: Shanahan's
R: hornpipe
M: 4/4
K: Gmajor
|:(3DEF|~G3A BGBd|~g3a bgdB|A^GAB cBce|(3agf (3gfe (3dcB (3cBA|
GFGA BGBd|gfga bgdB|A2ed BGAF|G2 GF G2:|
|:(3ABc|~d3c Bcd2|ecAG FAD2|(3Bcd ef gfge|
edcB (3ABc dB|~G3A BGBd|~g3a bgdB|A2ed BGAF|G2GF G2:|

